X: 8683
T: Crossing The Shannon
R: reel
M: 4/4
K: Dmajor
|:FG|Addd AdFG|Addd fdBd|Addd AdFA|AGFG E2FG|
Addd AdFG|Addd fdBd|Adfa gefa|gece d2:|
|:FG|Addd fage|fage fdBd|Addd AdFA|AGFG E2FG|
Addd fage|fage fdBd|Adfa gefa|gece d2:|

